src/icons/svg/file.svg

<?xml version="1.0" encoding="UTF-8"?>
<svg width="40px" height="49px" viewBox="0 0 40 49" version="1.1" xmlns="http://www.w3.org/2000/svg"
>
    <path d="M0,4.44444444 C0,1.98984556 1.98984556,0 4.44444444,0 L27.7777778,0 C28.4075079,0 29.0075995,0.267500805 29.4288889,0.735555556 L39.4288889,11.8466667 C39.7963937,12.2546444 40,12.7842381 40,13.3333333 L40,26.6666667 C40,27.8939661 39.0050772,28.8888889 37.7777778,28.8888889 C36.5504783,28.8888889 35.5555556,27.8939661 35.5555556,26.6666667 L35.5555556,14.1866667 L26.7888889,4.44444444 L4.44444444,4.44444444 L4.44444444,44.4444444 L17.7777778,44.4444444 C19.0050772,44.4444444 20,45.4393672 20,46.6666667 C20,47.8939661 19.0050772,48.8888889 17.7777778,48.8888889 L4.44444444,48.8888889 C1.98984556,48.8888889 0,46.8990433 0,44.4444444 L0,4.44444444 Z"
          id="路径" fill="#646A73"></path>
    <path d="M0,4.44444444 C0,1.98984556 1.98984556,0 4.44444444,0 L27.7777778,0 C28.4075079,0 29.0075995,0.267500805 29.4288889,0.735555556 L39.4288889,11.8466667 C39.7963937,12.2546444 40,12.7842381 40,13.3333333 L40,26.6666667 C40,27.8939661 39.0050772,28.8888889 37.7777778,28.8888889 C36.5504783,28.8888889 35.5555556,27.8939661 35.5555556,26.6666667 L35.5555556,14.1866667 L26.7888889,4.44444444 L4.44444444,4.44444444 L4.44444444,44.4444444 L17.7777778,44.4444444 C19.0050772,44.4444444 20,45.4393672 20,46.6666667 C20,47.8939661 19.0050772,48.8888889 17.7777778,48.8888889 L4.44444444,48.8888889 C1.98984556,48.8888889 0,46.8990433 0,44.4444444 L0,4.44444444 Z"
          id="路径" fill-opacity="0.2" fill="#000000"></path>
    <path d="M22.2222222,33.3333333 C22.2222222,32.1060339 23.217145,31.1111111 24.4444444,31.1111111 L37.7777778,31.1111111 C39.0050772,31.1111111 40,32.1060339 40,33.3333333 C40,34.5606328 39.0050772,35.5555556 37.7777778,35.5555556 L24.4444444,35.5555556 C23.217145,35.5555556 22.2222222,34.5606328 22.2222222,33.3333333 Z"
          id="路径" fill="#646A73"></path>
    <path d="M22.2222222,33.3333333 C22.2222222,32.1060339 23.217145,31.1111111 24.4444444,31.1111111 L37.7777778,31.1111111 C39.0050772,31.1111111 40,32.1060339 40,33.3333333 C40,34.5606328 39.0050772,35.5555556 37.7777778,35.5555556 L24.4444444,35.5555556 C23.217145,35.5555556 22.2222222,34.5606328 22.2222222,33.3333333 Z"
          id="路径" fill-opacity="0.2" fill="#000000"></path>
    <path d="M22.2222222,40 C22.2222222,38.7727006 23.217145,37.7777778 24.4444444,37.7777778 L37.7777778,37.7777778 C39.0050772,37.7777778 40,38.7727006 40,40 C40,41.2272994 39.0050772,42.2222222 37.7777778,42.2222222 L24.4444444,42.2222222 C23.217145,42.2222222 22.2222222,41.2272994 22.2222222,40 Z"
          id="路径" fill="#646A73"></path>
    <path d="M22.2222222,40 C22.2222222,38.7727006 23.217145,37.7777778 24.4444444,37.7777778 L37.7777778,37.7777778 C39.0050772,37.7777778 40,38.7727006 40,40 C40,41.2272994 39.0050772,42.2222222 37.7777778,42.2222222 L24.4444444,42.2222222 C23.217145,42.2222222 22.2222222,41.2272994 22.2222222,40 Z"
          id="路径" fill-opacity="0.2" fill="#000000"></path>
    <path d="M22.2222222,46.6666667 C22.2222222,45.4393672 23.217145,44.4444444 24.4444444,44.4444444 L37.7777778,44.4444444 C39.0050772,44.4444444 40,45.4393672 40,46.6666667 C40,47.8939661 39.0050772,48.8888889 37.7777778,48.8888889 L24.4444444,48.8888889 C23.217145,48.8888889 22.2222222,47.8939661 22.2222222,46.6666667 Z"
          id="路径" fill="#646A73"></path>
    <path d="M22.2222222,46.6666667 C22.2222222,45.4393672 23.217145,44.4444444 24.4444444,44.4444444 L37.7777778,44.4444444 C39.0050772,44.4444444 40,45.4393672 40,46.6666667 C40,47.8939661 39.0050772,48.8888889 37.7777778,48.8888889 L24.4444444,48.8888889 C23.217145,48.8888889 22.2222222,47.8939661 22.2222222,46.6666667 Z"
          id="路径" fill-opacity="0.2" fill="#000000"></path>
    <path d="M26.6666667,0 C27.8939661,0 28.8888889,0.994922778 28.8888889,2.22222222 L28.8888889,11.1111111 L37.7777778,11.1111111 C39.0050772,11.1111111 40,12.1060339 40,13.3333333 C40,14.5606328 39.0050772,15.5555556 37.7777778,15.5555556 L26.6666667,15.5555556 C25.4393672,15.5555556 24.4444444,14.5606328 24.4444444,13.3333333 L24.4444444,2.22222222 C24.4444444,0.994922778 25.4393672,0 26.6666667,0 Z"
          id="路径" fill="#646A73"></path>
    <path d="M26.6666667,0 C27.8939661,0 28.8888889,0.994922778 28.8888889,2.22222222 L28.8888889,11.1111111 L37.7777778,11.1111111 C39.0050772,11.1111111 40,12.1060339 40,13.3333333 C40,14.5606328 39.0050772,15.5555556 37.7777778,15.5555556 L26.6666667,15.5555556 C25.4393672,15.5555556 24.4444444,14.5606328 24.4444444,13.3333333 L24.4444444,2.22222222 C24.4444444,0.994922778 25.4393672,0 26.6666667,0 Z"
          id="路径" fill-opacity="0.2" fill="#000000"></path>
</svg>

<svg width="40" height="49" xmlns="http://www.w3.org/2000/svg"><path d="M0 4.444A4.444 4.444 0 0 1 4.444 0h23.334c.63 0 1.23.268 1.65.736l10 11.11c.368.409.572.938.572 1.487v13.334a2.222 2.222 0 0 1-4.444 0v-12.48l-8.767-9.743H4.444v40h13.334a2.222 2.222 0 0 1 0 4.445H4.444A4.444 4.444 0 0 1 0 44.444v-40z" fill="currentColor"/><path d="M0 4.444A4.444 4.444 0 0 1 4.444 0h23.334c.63 0 1.23.268 1.65.736l10 11.11c.368.409.572.938.572 1.487v13.334a2.222 2.222 0 0 1-4.444 0v-12.48l-8.767-9.743H4.444v40h13.334a2.222 2.222 0 0 1 0 4.445H4.444A4.444 4.444 0 0 1 0 44.444v-40z" fill-opacity=".2" fill="currentColor"/><path d="M22.222 33.333c0-1.227.995-2.222 2.222-2.222h13.334a2.222 2.222 0 0 1 0 4.445H24.444a2.222 2.222 0 0 1-2.222-2.223z" fill="currentColor"/><path d="M22.222 33.333c0-1.227.995-2.222 2.222-2.222h13.334a2.222 2.222 0 0 1 0 4.445H24.444a2.222 2.222 0 0 1-2.222-2.223z" fill-opacity=".2" fill="currentColor"/><path d="M22.222 40c0-1.227.995-2.222 2.222-2.222h13.334a2.222 2.222 0 0 1 0 4.444H24.444A2.222 2.222 0 0 1 22.222 40z" fill="currentColor"/><path d="M22.222 40c0-1.227.995-2.222 2.222-2.222h13.334a2.222 2.222 0 0 1 0 4.444H24.444A2.222 2.222 0 0 1 22.222 40z" fill-opacity=".2" fill="currentColor"/><path d="M22.222 46.667c0-1.228.995-2.223 2.222-2.223h13.334a2.222 2.222 0 0 1 0 4.445H24.444a2.222 2.222 0 0 1-2.222-2.222z" fill="currentColor"/><path d="M22.222 46.667c0-1.228.995-2.223 2.222-2.223h13.334a2.222 2.222 0 0 1 0 4.445H24.444a2.222 2.222 0 0 1-2.222-2.222z" fill-opacity=".2" fill="currentColor"/><path d="M26.667 0c1.227 0 2.222.995 2.222 2.222v8.89h8.889a2.222 2.222 0 0 1 0 4.444H26.667a2.222 2.222 0 0 1-2.223-2.223V2.223C24.444.994 25.44 0 26.667 0z" fill="currentColor"/><path d="M26.667 0c1.227 0 2.222.995 2.222 2.222v8.89h8.889a2.222 2.222 0 0 1 0 4.444H26.667a2.222 2.222 0 0 1-2.223-2.223V2.223C24.444.994 25.44 0 26.667 0z" fill-opacity=".2" fill="currentColor"/></svg>
